icons/carets-in-horizontal.svg

<svg xmlns="http://www.w3.org/2000/svg" width="24" height="24" viewBox="0 0 24 24">
  <path d="M21,5.41421356 C21.5522847,5.41421356 22,5.86192881 22,6.41421356 L22,6.41421356 L22,17.5857864 C22,17.8510029 21.8946432,18.1053568 21.7071068,18.2928932 C21.3165825,18.6834175 20.6834175,18.6834175 20.2928932,18.2928932 L20.2928932,18.2928932 L14.7071068,12.7071068 C14.3165825,12.3165825 14.3165825,11.6834175 14.7071068,11.2928932 L14.7071068,11.2928932 L20.2928932,5.70710678 C20.4804296,5.5195704 20.7347835,5.41421356 21,5.41421356 Z M3,5.41421356 C3.26521649,5.41421356 3.5195704,5.5195704 3.70710678,5.70710678 L9.29289322,11.2928932 C9.68341751,11.6834175 9.68341751,12.3165825 9.29289322,12.7071068 L3.70710678,18.2928932 C3.31658249,18.6834175 2.68341751,18.6834175 2.29289322,18.2928932 C2.10535684,18.1053568 2,17.8510029 2,17.5857864 L2,6.41421356 C2,5.86192881 2.44771525,5.41421356 3,5.41421356 Z"/>
</svg>

<svg xmlns="http://www.w3.org/2000/svg" viewBox="0 0 24 24">
  <path d="M21 5.41a1 1 0 0 1 1 1V17.6a1 1 0 0 1-1.7.7l-5.6-5.58a1 1 0 0 1 0-1.42l5.6-5.58a1 1 0 0 1 .7-.3zm-18 0a1 1 0 0 1 .7.3l5.6 5.58a1 1 0 0 1 0 1.42l-5.6 5.58a1 1 0 0 1-1.7-.7V6.4a1 1 0 0 1 1-1z"/>
</svg>
